icon/pk/fingerprint.svg

<svg viewBox="0 0 48 48" fill="none" xmlns="http://www.w3.org/2000/svg" height="1em" width="1em">
  <path d="M18 43V22C18 18.6863 20.6863 16 24 16C27.3137 16 30 18.6863 30 22V43" stroke="black" stroke-width="4" stroke-linecap="round" stroke-linejoin="round"/>
  <path d="M12 40V22C12 15.3726 17.3726 10 24 10C30.6274 10 36 15.3726 36 22V40" stroke="black" stroke-width="4" stroke-linecap="round" stroke-linejoin="round"/>
  <path d="M6 35V22C6 12.0589 14.0589 4 24 4C33.9411 4 42 12.0589 42 22V35" stroke="black" stroke-width="4" stroke-linecap="round" stroke-linejoin="round"/>
  <path d="M24 44V31" stroke="black" stroke-width="4" stroke-linecap="round" stroke-linejoin="round"/>
  <path d="M24 24.625V21.875" stroke="black" stroke-width="4" stroke-linecap="round" stroke-linejoin="round"/>
</svg>

<svg width="48" height="48" fill="none" xmlns="http://www.w3.org/2000/svg"><path d="M18 43V22a6 6 0 0 1 12 0v21" stroke="#000" stroke-width="4" stroke-linecap="round" stroke-linejoin="round"/><path d="M12 40V22c0-6.627 5.373-12 12-12s12 5.373 12 12v18" stroke="#000" stroke-width="4" stroke-linecap="round" stroke-linejoin="round"/><path d="M6 35V22c0-9.941 8.059-18 18-18s18 8.059 18 18v13M24 44V31M24 24.625v-2.75" stroke="#000" stroke-width="4" stroke-linecap="round" stroke-linejoin="round"/></svg>
